X:80
T:Elterwater Quickstep
M:6/8
L:1/8
K:G
B/c/|d>BG d>BG|c2e efg|d>BG d>BG|F<AA A2B/c/|
B>AG B>AG|c2e efg|d>BG c>AF|A3 G2:|
|:g/a/|b>ag a>gf|g>fe d>cB|cde d>BG|B3 A2 g/a/|
b>ag a>gf|g>fe d>cB|c2e dBG|A3G2:|

